X:978
T:Miss Murphy
R:Other
O:Ireland
C:Turlough Carolan
B:Complete works n105
S:Complete works n105
Z:Transcription, chords:Mike Long
M:C
L:1/8
K:C
gf|\
"C"e2 g2 "G"d2 g2|"C"c2 g2 "G"B2 g2|"Dm"fedc "G"B2 d2|"F"cB~AG "G"G2 cB|\
"F"A2 c2 "C"G2 c2|"F"F2 d2 "G"cBAG|"F"FG A2 "G"D2 G2|"C"{F}E2 ~DC C2:|
|:z2|\
"C"GAGF E2 C2|EF G2 G2 c2|"G"Bc d2 dedc|~B2 G2 G4|\
"F"~g2 f2 ~g2 f2|"C"efge "G"dc B2|
"F"a2 a2 ~g2 f2|"F"fgfe "G"d2 g2|\
"C"{f}e2 dc c'2 c2|"F"f2 a2 "(G)"a2 gf|"C"edec "G"{e}d2 cB|"C"c2 c2 c2:|
